azure-patterns/svg-azure-maps.svg

<svg xmlns="http://www.w3.org/2000/svg" viewBox="0 0 235 180">
                                
                            
    <g stroke="none" stroke-width="1" fill="none" fill-rule="evenodd">
        <polygon fill="#0AADD1" points="154.9023 135.4225 144.7623 160.9245 134.6523 135.4225 127.0073 135.4225 127.0073 168.3645 132.1033 168.3645 132.1033 141.8445 142.6163 168.3645 142.6203 168.3645 142.6203 168.3645 146.5353 168.3645 156.9813 142.0935 156.9813 168.3645 162.3393 168.3645 162.3393 135.4225"></polygon>
        <polygon fill="#1E74BD" points="52.2373 144.8346 33.3083 144.8346 33.3083 148.9656 44.9953 148.9656 32.1323 166.3776 32.0793 168.5196 52.1423 168.5196 52.1423 164.2336 39.5993 164.2336 52.2373 147.2406"></polygon>
        <path d="M13.0203,135.3178 L12.5223,135.3178 L0.0003,168.4698 L6.1173,168.4698 L8.9743,160.0768 L21.9593,160.0768 L24.8383,168.4698 L30.9553,168.4698 L18.5623,135.3178 L13.0203,135.3178 Z M15.4413,141.0708 L20.4083,155.5538 L10.5133,155.5538 L15.4413,141.0708 Z" fill="#1E74BD"></path>
        <path d="M71.8979,144.9392 L71.8979,160.1092 C71.6249,162.6982 69.4459,164.7052 66.7819,164.7052 C63.9319,164.7052 61.6759,162.5612 61.6759,159.7112 L61.6489,144.9392 L56.3159,144.9392 L56.3159,161.1222 C56.3159,165.6332 60.1009,169.2282 64.6119,169.2282 C67.8039,169.2282 70.5589,167.4032 71.8979,164.7382 L71.8979,168.3652 L77.2319,168.3652 L77.2319,144.9392 L71.8979,144.9392 Z" fill="#1E74BD"></path>
        <path d="M91.1934,145.1222 C89.0494,146.1162 88.1624,148.3392 87.4814,149.9522 L87.4814,144.9392 L82.1474,144.9392 L82.1474,168.3652 L87.4814,168.3652 L87.4814,156.0562 C87.4934,155.5412 87.5514,155.1932 87.6504,154.6262 C88.0424,152.3772 89.4674,150.2202 91.9514,149.4362 C93.9904,148.7922 95.3254,149.5932 95.7374,149.9012 C95.7944,149.9432 95.8734,149.9012 95.8734,149.8312 L95.8734,144.9162 C95.8734,144.8342 95.8224,144.7632 95.7444,144.7392 C95.2474,144.5832 93.3634,144.1162 91.1934,145.1222" fill="#1E74BD"></path>
        <path d="M117.7656,156.6295 C117.7656,153.2325 116.9866,149.8075 115.0366,147.5665 C113.0546,145.2865 110.7756,144.2335 106.8296,144.2205 C100.7896,144.2025 95.8936,149.7765 95.8936,156.6295 C95.8936,163.4825 99.5986,169.0575 106.8296,169.0375 C110.0466,169.0285 113.1506,168.4115 115.7166,167.2515 L115.7166,162.7005 C114.2846,163.8075 111.8636,164.8225 107.3046,164.8225 C104.0306,164.8225 101.4616,161.9985 101.5006,158.2335 L117.6756,158.2355 C117.7346,157.7095 117.7656,157.1735 117.7656,156.6295 Z M101.4806,154.2985 C101.8736,150.6055 104.3676,148.3315 107.0696,148.3315 C108.4206,148.3315 109.5986,148.4495 110.8536,149.7435 C111.8746,150.7965 112.2656,152.0175 112.4426,154.2985 L101.4806,154.2985 Z" fill="#1E74BD"></path>
        <path d="M177.0527,144.3118 C169.6407,144.6258 168.9737,146.9788 168.9737,146.9788 L168.9737,151.3708 C168.9737,151.3708 169.9547,150.3118 170.6597,149.9198 C171.3657,149.5278 173.6797,148.0768 177.2877,148.3508 C180.8957,148.6258 181.1317,151.9198 181.2357,152.1028 L181.2357,153.5438 C179.5037,153.6378 175.8027,153.8708 173.1707,154.4688 C169.7197,155.2538 165.9937,156.9398 166.7387,163.1748 C167.4837,169.4108 173.7517,169.1578 175.8367,168.9398 C178.0207,168.7118 180.0657,166.9668 181.2357,165.0778 L181.2357,168.3648 L186.5697,168.3648 L186.5697,152.1028 C186.5437,148.9788 184.4647,143.9978 177.0527,144.3118 M178.7397,164.0778 C176.9347,165.1358 173.2097,165.2538 172.2287,163.2928 C171.2487,161.3318 171.6407,159.2538 173.6017,158.4298 C175.5627,157.6068 176.7787,157.6458 178.8177,157.3318 C179.7447,157.1888 180.5887,157.1528 181.2357,157.0568 L181.2357,160.2718 C180.9747,161.4498 180.1917,163.2248 178.7397,164.0778" fill="#0AADD1"></path>
        <path d="M210.4267,146.1549 C208.8137,144.7939 206.5597,144.2299 204.4757,144.2299 C201.3497,144.2299 198.5677,146.0599 196.7657,148.9099 L196.7657,144.9389 L191.3277,144.9389 L191.3277,179.3979 L196.7657,179.3979 L196.7657,165.0779 C196.9297,165.3149 197.1017,165.5459 197.2887,165.7639 C199.6417,168.5089 201.9147,168.8869 204.4757,168.8869 C209.9057,168.8869 214.3087,163.3669 214.3087,156.5579 C214.3087,152.3629 213.4467,148.7039 210.4267,146.1549 M202.5687,164.9539 C200.4167,164.9539 198.2917,163.5419 197.1717,161.3709 C197.0077,161.0539 196.8747,160.7189 196.7657,160.3709 L196.7657,153.7899 C197.6777,150.7609 199.9317,148.6169 202.5687,148.6169 C204.2597,148.6169 206.0877,149.1929 207.2107,150.6259 C208.3747,152.1099 208.8047,154.4889 208.8047,156.7849 C208.8047,161.2959 206.0127,164.9539 202.5687,164.9539" fill="#0AADD1"></path>
        <path d="M217.6816,162.7047 L217.6816,167.8417 C221.6816,169.2537 224.9756,169.4497 229.1726,168.3917 C233.3686,167.3317 234.5456,164.7047 234.5846,162.0777 C234.6236,159.4497 233.4866,156.5867 228.2316,154.8607 C226.8676,154.4127 225.5196,153.9377 224.8196,153.5277 C223.2736,152.6237 223.1606,151.7367 223.1326,151.3317 C223.0936,150.7437 223.2116,148.3507 227.2506,148.3117 C231.2896,148.2727 233.2506,149.9587 233.2506,149.9587 L233.2506,145.2137 C233.1726,145.1357 230.1916,144.1547 226.3886,144.3897 C222.5836,144.6257 217.8776,146.4687 217.9566,150.7827 C218.0416,155.4487 220.5056,156.8217 223.0936,157.9197 C225.6816,159.0177 229.2116,159.8027 229.2116,162.3517 C229.2116,164.9007 225.6816,165.1357 224.1136,165.0967 C222.5446,165.0577 218.9366,163.9207 217.6816,162.7047" fill="#0AADD1"></path>
        <polygon fill="#0BABD1" points="134.5415 1.8748 120.8935 23.0518 161.1095 120.7008 161.8345 122.3458"></polygon>
        <polygon fill="#0058A1" points="68.3657 106.76 121.0737 22.992 143.3627 77.609"></polygon>
        <polygon fill="#1E74BD" points="143.3628 77.6115 118.6388 87.2115 161.8368 122.3505"></polygon>
        <path d="M134.5405,0.0004 C133.9055,0.0004 133.3045,0.3234 132.9575,0.8734 L66.6015,105.8184 C66.1685,106.5024 66.2245,107.3864 66.7385,108.0114 C67.1025,108.4534 67.6375,108.6944 68.1865,108.6944 C68.4135,108.6944 68.6435,108.6534 68.8645,108.5674 L118.3155,89.3644 L160.6555,123.8044 C160.9985,124.0834 161.4175,124.2244 161.8385,124.2244 C162.1805,124.2244 162.5225,124.1314 162.8265,123.9434 C163.5055,123.5214 163.8435,122.7154 163.6665,121.9364 L136.3695,1.4604 C136.2015,0.7214 135.6055,0.1564 134.8595,0.0274 C134.7525,0.0094 134.6455,0.0004 134.5405,0.0004 M134.5405,1.8744 L161.8385,122.3504 L118.6525,87.2234 L68.3695,106.7484 L134.5405,1.8744" fill="#FFFFFF"></path>
    </g>
</svg>

<svg xmlns="http://www.w3.org/2000/svg" viewBox="0 0 235 180"><g fill="none" fill-rule="evenodd"><path fill="#0AADD1" d="M154.902 135.423l-10.14 25.501-10.11-25.501h-7.645v32.941h5.096v-26.52l10.513 26.52h3.919l10.446-26.27v26.27h5.358v-32.941z"/><path fill="#1E74BD" d="M52.237 144.835H33.308v4.13h11.687l-12.863 17.413-.053 2.142h20.063v-4.286H39.6l12.638-16.993zM13.02 135.318h-.498L0 168.47h6.117l2.857-8.393H21.96l2.88 8.393h6.116l-12.393-33.152H13.02zm2.421 5.753l4.967 14.483h-9.895l4.928-14.483zM71.898 144.94v15.17a5.135 5.135 0 0 1-5.116 4.595c-2.85 0-5.106-2.144-5.106-4.994l-.027-14.772h-5.333v16.183c0 4.511 3.785 8.106 8.296 8.106a8.14 8.14 0 0 0 7.286-4.49v3.627h5.334V144.94h-5.334zM91.193 145.122c-2.144.994-3.03 3.217-3.712 4.83v-5.013h-5.334v23.426h5.334v-12.309c.012-.515.07-.863.17-1.43.391-2.249 1.816-4.406 4.3-5.19 2.04-.644 3.374.157 3.786.465.057.042.136 0 .136-.07v-4.915a.183.183 0 0 0-.129-.177c-.497-.156-2.38-.623-4.55.383M117.766 156.63c0-3.398-.78-6.822-2.73-9.064-1.981-2.28-4.26-3.333-8.206-3.346-6.04-.018-10.936 5.556-10.936 12.41 0 6.852 3.705 12.428 10.936 12.407 3.217-.008 6.32-.626 8.887-1.786v-4.55c-1.432 1.107-3.853 2.121-8.412 2.121-3.274 0-5.843-2.823-5.804-6.589l16.175.002c.059-.526.09-1.062.09-1.606zm-16.285-2.332c.393-3.692 2.887-5.966 5.589-5.966 1.35 0 2.529.118 3.784 1.412 1.02 1.053 1.412 2.274 1.589 4.554H101.48z"/><path d="M177.053 144.312c-7.412.314-8.08 2.667-8.08 2.667v4.392s.982-1.06 1.687-1.451c.706-.392 3.02-1.843 6.628-1.57 3.608.276 3.844 3.57 3.948 3.753v1.44c-1.732.095-5.433.328-8.065.926-3.451.785-7.177 2.47-6.432 8.706.745 6.236 7.013 5.983 9.098 5.765 2.184-.228 4.229-1.973 5.399-3.862v3.287h5.334v-16.262c-.026-3.124-2.105-8.105-9.517-7.791m1.687 19.766c-1.805 1.058-5.53 1.176-6.511-.785-.98-1.961-.588-4.04 1.373-4.863 1.96-.823 3.177-.784 5.216-1.098.927-.143 1.77-.18 2.418-.275v3.215c-.261 1.178-1.044 2.953-2.496 3.806M210.427 146.155c-1.613-1.361-3.867-1.925-5.951-1.925-3.126 0-5.908 1.83-7.71 4.68v-3.971h-5.438v34.459h5.438v-14.32c.164.237.336.468.523.686 2.353 2.745 4.626 3.123 7.187 3.123 5.43 0 9.833-5.52 9.833-12.33 0-4.194-.862-7.853-3.882-10.402m-7.858 18.799c-2.152 0-4.277-1.412-5.397-3.583a6.212 6.212 0 0 1-.406-1v-6.581c.912-3.03 3.166-5.173 5.803-5.173 1.69 0 3.519.576 4.642 2.009 1.164 1.484 1.594 3.863 1.594 6.159 0 4.51-2.792 8.169-6.236 8.169M217.682 162.705v5.137c4 1.412 7.294 1.608 11.49.55 4.197-1.06 5.374-3.687 5.413-6.314.039-2.628-1.098-5.491-6.353-7.217-1.364-.448-2.712-.923-3.412-1.333-1.546-.904-1.66-1.791-1.687-2.196-.04-.588.079-2.981 4.118-3.02 4.039-.04 6 1.647 6 1.647v-4.745c-.078-.078-3.06-1.06-6.862-.824-3.805.236-8.511 2.079-8.432 6.393.085 4.666 2.549 6.039 5.137 7.137 2.588 1.098 6.118 1.883 6.118 4.432 0 2.549-3.53 2.784-5.098 2.745-1.57-.04-5.177-1.176-6.432-2.392" fill="#0AADD1"/><path fill="#0BABD1" d="M134.542 1.875l-13.648 21.177 40.215 97.649.725 1.645z"/><path fill="#0058A1" d="M68.366 106.76l52.708-83.768 22.289 54.617z"/><path fill="#1E74BD" d="M143.363 77.612l-24.724 9.6 43.198 35.138z"/><path d="M134.54 0c-.635 0-1.236.323-1.582.873L66.602 105.818a1.874 1.874 0 0 0 2.263 2.75l49.45-19.204 42.34 34.44a1.871 1.871 0 0 0 2.172.14 1.875 1.875 0 0 0 .84-2.008L136.369 1.46A1.877 1.877 0 0 0 134.541 0m0 1.874l27.298 120.476-43.186-35.127-50.284 19.525L134.541 1.874" fill="#FFF"/></g></svg>
